X: 22247
T: La Grande Chaine
R: barndance
M: 4/4
K: Gmajor
|:D2|G2 GA BABc|d2 dc B2 G2|c2 cB AFDA|dedc B2 D2|
GFGA BABc|dedc B2 G2|cdcB AGFA|G2 B2 G2:|
|:dd|g2 gf efge|d2 dc B2 G2|c2 cB A2 A2|dedc B2 d2|
g2 gf efge|dedc B2 G2|cdcB AGFA|G2 B2 G2:|

